X: 20451
T: John Joe Harnett's
R: slide
M: 12/8
K: Dmajor
|:AA/B/c|dcd edB d2 B A2 b|a2 f fed fgf edB|
d2 d edB d2 B A2 b|a2 f efe d3:|
|:d2 e|f3- fed e3 edc|d2 A dd/e/f a3 f2 e|
d3 edB d2 B A2 b|a2 f edc d3:|

